nord_icons/symbolic/devices/auth-smartcard-symbolic.svg

<?xml version="1.0" encoding="UTF-8"?>
<svg height="16px" viewBox="0 0 16 16" width="16px" xmlns="http://www.w3.org/2000/svg">
    <path d="m 4 0 c -2 0 -2 2 -2 2 v 12 c 0 2 2 2 2 2 h 8 s 2 0 2 -2 v -12 c 0 -2 -2 -2 -2 -2 z m 1.507812 2.976562 c 0.28125 -0.003906 0.511719 0.226563 0.507813 0.507813 v 3.53125 h 1 v -4.03125 h 3 v 4.03125 h 0.511719 c 0.675781 -0.011719 0.675781 1.007813 0 1 h -1.511719 v -4.03125 h -1 v 4.03125 h -3 v -4.53125 c -0.003906 -0.277344 0.214844 -0.503906 0.492187 -0.507813 z m 0 0" fill="#2e3434"/>
</svg>

<svg xmlns="http://www.w3.org/2000/svg" width="16" height="16" version="1.1">
 <path style="fill:#9aa2af" d="M 4,0 C 2,0 2,2 2,2 V 14 C 2,16 4,16 4,16 H 12 C 12,16 14,16 14,14 V 2 C 14,0 12,0 12,0 Z M 5.508,2.977 A 0.5,0.5 0 0 1 6.016,3.484 V 7.016 H 7.016 V 2.984 H 10.016 V 7.016 H 10.527 C 11.204,7.006 11.204,8.026 10.527,8.016 H 9.016 V 3.984 H 8.016 V 8.016 H 5.016 V 3.484 A 0.5,0.5 0 0 1 5.508,2.977 Z"/>
</svg>
